library/GT_Icon.svg

<?xml version="1.0" encoding="UTF-8" standalone="no"?>
<svg
   width="11.3778in"
   height="11.3778in"
   viewBox="0 0 1024 1024"
   version="1.1"
   id="svg1"
   sodipodi:docname="GT_Icon.svg"
   inkscape:version="1.4.2 (1:1.4.2+202505120737+ebf0e940d0)"
   xmlns:inkscape="http://www.inkscape.org/namespaces/inkscape"
   xmlns:sodipodi="http://sodipodi.sourceforge.net/DTD/sodipodi-0.dtd"
   xmlns="http://www.w3.org/2000/svg"
   xmlns:svg="http://www.w3.org/2000/svg">
  <sodipodi:namedview
     id="namedview1"
     pagecolor="#505050"
     bordercolor="#ffffff"
     borderopacity="1"
     inkscape:showpageshadow="0"
     inkscape:pageopacity="0"
     inkscape:pagecheckerboard="1"
     inkscape:deskcolor="#d1d1d1"
     inkscape:document-units="in"
     inkscape:zoom="1.0592631"
     inkscape:cx="546.1344"
     inkscape:cy="546.1344"
     inkscape:window-width="2560"
     inkscape:window-height="1410"
     inkscape:window-x="4480"
     inkscape:window-y="0"
     inkscape:window-maximized="1"
     inkscape:current-layer="svg1" />
  <defs
     id="defs1" />
  <path
     id="layer1"
     style="display:inline;fill:#006ec0;fill-opacity:1;stroke-width:0.989998;stroke-dasharray:none"
     d="m 567.47204,0.93566712 c -3.20219,-0.1015625 -6.42203,0.11103908 -9.47203,0.50353908 -13.05,2.53 -19.83057,10.1401348 -20.00057,23.5601348 V 136.99924 c 0.02,14.76 5.69008,25.80093 22.00008,26.00093 10.58,0.12 21.16115,1.58985 28.36115,-8.04015 6.59,-8.8 4.63988,-27.02952 4.63988,-37.95952 V 28.000434 c -0.01,-4.96 -0.16008,-9.360217 -2.21008,-14.000217 -4.26,-9.6225002 -13.71187,-12.7598624 -23.31843,-13.06454988 z m 108.53189,0.0494384 c -3.31156,-0.15984375 -6.70303,0.0374454 -10.00303,0.4449454 -16.24,2.71 -20.81033,12.0701371 -21.00033,27.5701371 V 133.00023 c 0.02,15.52 3.32008,29.76994 22.00008,29.99994 13.39,0.16 27.51002,1.26003 32.21002,-14.99997 0.89,-3.07 0.78918,-5.84962 0.78918,-8.99962 V 25.999095 c -0.01,-3.66 0.12039,-6.45937 -1.10961,-9.99937 -3.75,-10.8450004 -12.95162,-14.5350883 -22.88631,-15.0146195 z m -215.35175,0.003662 c -3.27344,-0.14125 -6.56147,0.0529386 -9.65147,0.4504386 -13.69,2.56 -19.93057,9.4601348 -20.00057,23.5601348 V 139.00058 c 0.02,13.43 6.43032,23.79959 21.00032,23.99959 12.83,0.17 27.41903,1.46978 32.19903,-14.00022 0.9,-2.92 0.80017,-5.97961 0.80017,-8.99961 V 24.999341 c -0.01,-3.56 0.12025,-6.57937 -1.12975,-9.99937 C 480.14991,4.8674707 470.47249,1.4125176 460.65218,0.9887676 Z M 348.96355,1.001585 c -1.66652,0.077461 -3.32898,0.2259659 -4.96398,0.4284659 -15.71,2.62 -20.82032,11.2503831 -21.00032,26.5703831 V 134.99974 c 0.02,15.07 4.62008,27.79043 22.00008,28.00043 13.29,0.16 27.58002,1.01003 32.21002,-14.99997 0.89,-3.07 0.79101,-5.84962 0.79101,-8.99962 V 25.999095 c -0.01,-3.64 0.12038,-6.46937 -1.10962,-9.99937 C 372.51574,3.4172246 360.62922,0.4593584 348.96355,1.001585 Z M 22.000079,323.14024 c -6.51,1.37 -11.139711,2.50915 -15.6097106,7.89915 -6.45000001,7.78 -7.12981873,26.02026 -2.8198187,34.96026 1.55,3.22 4.5185743,6.30959 7.4285743,8.34959 5.05,3.55 9.139971,3.64112 14.999971,3.65112 H 139.00058 c 3.15,0 5.92962,0.099 8.99962,-0.79101 16.01,-4.63 15.15997,-18.92002 14.99997,-32.21002 -0.07,-5.15 -0.64943,-8.67018 -3.79943,-12.96018 -5.9,-8.04 -15.99076,-9.02891 -25.20076,-8.89891 H 60.999637 Z m 858.999181,0 c -6.62,1.39 -11.03915,2.49915 -15.65915,7.89915 -7.73,9.03 -7.5694,32.08103 0.9906,40.63103 5.45,5.46 11.39939,6.31994 18.66939,6.32994 h 111.99991 c 7.55999,-0.01 13.11959,-0.4898 18.81959,-6.1798 2.38,-2.39 4.4006,-5.58017 5.3906,-8.82017 1.2,-4.01 1.17,-19.95959 0,-23.99959 -0.92,-3.2 -2.6608,-6.24115 -4.8908,-8.70115 -6.03,-6.67 -14.8702,-7.28941 -23.32024,-7.15941 h -72.99851 z m -528.00007,87.85932 c -30.95,0.05 -54.84928,24.08112 -54.99928,55.00112 v 89.99982 c 0.05,33.09 23.91062,56.94879 57.00062,56.99879 h 89.99982 c 6.21,-0.08 14.24874,-1.51985 19.99874,-3.85985 5.05,-2.07 9.67022,-4.46859 14.00022,-7.81859 22.9,-17.72 21.00032,-38.80117 21.00032,-64.32117 v -45.99966 h -95.00042 v 46.99942 h 49.00076 c 0,8.36 2.49989,23.57069 -7.00011,27.26069 -2.07,0.81 -4.80011,0.72974 -7.00011,0.73974 h -81.00021 c -11.28,-0.02 -14.85997,-3.40997 -14.99997,-14.99997 v -76.99936 c 0,-2.83 -0.13011,-6.34145 0.88989,-9.00145 1.22,-3.19 3.89997,-6.02828 7.10997,-7.25828 3.43,-1.32 23.87019,-0.74158 29.00019,-0.74158 h 119.00001 v -45.99967 z m 170.00028,0 v 45.99967 h 203.00131 v -45.99967 z m -462.999587,20.00058 -42.000651,0.52917 c -5.41,1.61 -9.4596085,3.73072 -12.7496085,8.51072 -6.68,9.68 -5.82031818,31.40944 2.9296818,39.62944 5.2899997,4.97 10.0200357,5.32019 16.8200357,5.33019 H 140.00034 c 15.46,-0.02 22.97983,-7.53983 22.99983,-22.99983 0.01,-9.1 1.42066,-16.5793 -5.20934,-23.9593 -5.63,-6.26 -10.89025,-7.03039 -18.79025,-7.04039 z m 817.000357,0.1593 c -11.96,3.23 -16.85948,12.08028 -16.99948,23.84028 -0.1,8.75 -0.2709,17.01071 6.2091,23.90071 5.23,5.56 10.66049,6.08923 17.79049,6.09923 h 114.99916 c 15.67999,-0.03 22.97979,-8.74958 22.99979,-23.99958 0.01,-8.02 0.991,-15.24994 -4.389,-21.97994 -5.57,-6.98 -11.2705,-8.0107 -19.61054,-7.8607 h -78.99887 z m -275.99983,46.84012 v 134.99973 h 45.99967 V 477.99956 Z m -541.000527,59.99988 -40.999066,0.52002 c -5.71,1.57 -9.7611796,3.55058 -13.3611796,8.49058 -6.86,9.4 -6.42895812,30.26068 1.5710419,38.90068 5.7999997,6.26 12.7597547,7.07983 20.7897547,7.08983 H 136.99924 c 7.34,-0.01 14.24113,-0.81092 19.82113,-6.21092 2.38,-2.31 4.41879,-5.60905 5.38879,-8.78905 1.22,-4.06 1.19,-20.90117 0,-25.00117 -0.85,-2.94 -2.32833,-5.65916 -4.41833,-7.89916 -5.7,-6.09 -12.94159,-7.09081 -20.79159,-7.10081 z M 878,538.16057 c -12.89,3.38 -17.93924,12.24004 -17.99924,24.84004 -0.03,7.51 -0.45167,14.62849 4.41833,20.99849 5.99,7.85 13.36052,8.99145 22.58052,9.00145 h 109.00064 c 7.91005,-0.01 14.94895,-0.99138 20.66895,-7.18138 7.53,-8.17 7.62,-32.49835 0,-40.63835 -5.8,-6.19 -12.6789,-7.17025 -20.66895,-7.02025 H 919.00089 Z M 59.000129,646.00033 16.999479,646.5295 c -5.29,1.65 -8.7395862,3.7796 -12.0995862,8.4796 -5.13000002,7.97 -5.56000002,26.93138 0,34.99138 5.2600002,8.21 11.9092022,9.98937 21.0992022,9.99937 H 139.00058 c 7.9,-0.01 13.16025,-0.78039 18.79025,-7.04039 3.98,-4.43 5.12934,-8.15993 5.20934,-13.95993 0.17,-12.92 1.68978,-27.46903 -14.00022,-32.19903 -2.98,-0.9 -5.92961,-0.80017 -8.99961,-0.80017 z m 857.999421,0 -41.99882,0.63903 c -5.2,1.96 -8.88098,4.45034 -11.78098,9.36034 -5.25,8.91 -4.64921,28.9006 2.31079,36.8206 5.34,6.08 11.87956,7.16955 19.46956,7.17955 h 112.99966 c 8.61004,-0.01 14.97034,-1.5006 20.35034,-9.0106 2.98,-4.16 3.5892,-8.03947 3.6492,-12.98947 0.15,-12.42 0.4698,-26.25985 -14.0002,-31.14985 -2.88,-0.97 -5.9996,-0.8496 -8.99959,-0.8496 z M 565.96691,859.74258 c -3.41297,-0.0151 -6.81141,0.28443 -9.96641,0.72693 -12.2,2.91 -17.85106,11.35084 -18.00106,23.53084 v 111.9999 c 0.02,15.45005 6.33983,25.79905 22.99983,25.99905 13.83,0.16 26.58111,0.3803 31.07111,-15.9997 0.99,-3.61 0.92017,-6.32935 0.93017,-9.99935 V 885.99986 c -0.02,-4.52 -0.37134,-8.77047 -2.13134,-13.00047 -4.2975,-10.335 -14.66339,-13.21134 -24.9023,-13.25681 z m -213.43281,0.0311 c -3.50687,-0.0764 -7.08404,0.21165 -10.53404,0.68665 -14.56,3.28 -18.83081,12.54925 -19.00081,26.53925 v 105.99955 c 0.02,15.75004 4.72166,28.78014 23.00166,29.00014 13.03,0.15 26.54829,0.6501 31.05829,-14.9999 1,-3.45 0.93116,-6.4694 0.94116,-9.99939 V 885.0001 c -0.01,-3.69 0.12038,-6.41937 -1.10962,-9.99937 -3.945,-11.4975 -13.83601,-14.9978 -24.35664,-15.22702 z m 321.9995,0 c -3.50688,-0.0764 -7.08404,0.21165 -10.53404,0.68665 -15.24,3.43 -18.82899,13.19901 -18.99899,27.53901 v 104.00004 c 0.02,15.90999 4.17984,29.76989 22.99984,29.99989 13.18,0.16 26.48927,0.6101 31.19927,-14.9999 0.9,-2.98 0.80017,-5.9196 0.80017,-8.99964 V 885.0001 c -0.01,-3.69 0.12039,-6.41937 -1.10961,-9.99937 -3.945,-11.4975 -13.83602,-14.9978 -24.35664,-15.22702 z m -215.37739,0.0183 c -3.47938,-0.0544 -6.94934,0.22749 -10.15684,0.67749 -13.09,3.12 -17.93923,10.51084 -17.99923,23.53084 v 113.99941 c 0.02,14.33004 6.85007,23.80954 22.00007,23.99954 12.94,0.15 26.88042,0.5201 31.36042,-14.9999 0.75,-2.57 0.63903,-5.3499 0.63903,-7.99989 V 884.00035 c -0.01,-3.64 0.12039,-6.4712 -1.10961,-10.0012 -3.7725,-10.845 -14.29572,-14.044 -24.73384,-14.20713 z"
     sodipodi:nodetypes="scccccsccsscccccsccsscccccsccsscccccsccscccccscccccccccccccccccccccccccsccccccccsccsccccccccccccccccccccccccccccccccccccccccccccccccccccccccccccccccscccccccsccscsccccccccssccccccccsscccccsccsscccccsccs" />
  <path
     id="layer2"
     style="display:inline;fill:#343b46;fill-opacity:1;stroke-width:0.989998;stroke-dasharray:none"
     d="m 314.99939,215.11005 c -14.35,2.48 -25.94956,5.44086 -38.99956,12.15086 -34.42,17.68 -60.93964,56.44834 -60.99964,95.73834 v 378.00036 c 0.02,13.99 4.59926,30.4904 10.75926,43.0004 5.87,11.95 11.95047,21.3497 21.28047,30.9997 19.62,20.27 50.64042,33.96079 78.96042,34.00079 h 371.00025 c 59.31,-0.09 111.90991,-51.32015 111.99991,-111.00015 V 326.00034 c -0.06,-36.31 -20.28052,-71.70004 -50.00052,-91.97004 -5.21,-3.56 -9.43997,-5.51001 -14.99997,-8.28001 -12.56,-6.26 -28.9204,-10.73024 -43.0004,-10.64024 H 445.00035 359.9993 Z m 11.00095,56.96034 h 43.0004 79.99863 242.00087 c 24.88,-0.03 46.83946,11.99889 56.18946,35.92889 2.4,6.15 3.73042,11.36106 3.81042,18.00106 v 132.00047 236.99844 c -0.05,29.6 -23.95953,55.64087 -53.99953,56.00087 H 565.00012 327.99985 c -33.72,-0.05 -55.94904,-27.58988 -55.99904,-59.99988 V 468.00019 330.99911 c 0.24,-20.27 10.0386,-40.36969 27.9986,-50.65969 9.59,-5.5 15.40093,-6.49903 26.00093,-8.26903 z"
     sodipodi:nodetypes="cccccccccccccccccccccccccccccccc" />
</svg>

<?xml version="1.0" encoding="UTF-8" standalone="no"?>
<!DOCTYPE svg PUBLIC "-//W3C//DTD SVG 20010904//EN"
              "http://www.w3.org/TR/2001/REC-SVG-20010904/DTD/svg10.dtd">

<svg xmlns="http://www.w3.org/2000/svg"
     width="11.3778in" height="11.3778in"
     viewBox="0 0 1024 1024">
  <path id="Auswahl #1"
        fill="#0087C8" stroke="none" stroke-width="1"
        d="M 344.00,1.43
           C 328.29,4.05 323.18,12.68 323.00,28.00
             323.00,28.00 323.00,135.00 323.00,135.00
             323.02,150.07 327.62,162.79 345.00,163.00
             358.29,163.16 372.58,164.01 377.21,148.00
             378.10,144.93 378.00,142.15 378.00,139.00
             378.00,139.00 378.00,26.00 378.00,26.00
             377.99,22.36 378.12,19.53 376.89,16.00
             371.89,1.62 357.08,-0.19 344.00,1.43 Z
           M 451.00,1.44
           C 437.31,4.00 431.07,10.90 431.00,25.00
             431.00,25.00 431.00,139.00 431.00,139.00
             431.02,152.43 437.43,162.80 452.00,163.00
             464.83,163.17 479.42,164.47 484.20,149.00
             485.10,146.08 485.00,143.02 485.00,140.00
             485.00,140.00 485.00,25.00 485.00,25.00
             484.99,21.44 485.12,18.42 483.87,15.00
             478.91,1.49 463.36,-0.15 451.00,1.44 Z
           M 558.00,1.44
           C 544.95,3.97 538.17,11.58 538.00,25.00
             538.00,25.00 538.00,137.00 538.00,137.00
             538.02,151.76 543.69,162.80 560.00,163.00
             570.58,163.12 581.16,164.59 588.36,154.96
             594.95,146.16 593.00,127.93 593.00,117.00
             593.00,117.00 593.00,28.00 593.00,28.00
             592.99,23.04 592.84,18.64 590.79,14.00
             585.11,1.17 570.20,-0.13 558.00,1.44 Z
           M 666.00,1.43
           C 649.76,4.14 645.19,13.50 645.00,29.00
             645.00,29.00 645.00,133.00 645.00,133.00
             645.02,148.52 648.32,162.77 667.00,163.00
             680.39,163.16 694.51,164.26 699.21,148.00
             700.10,144.93 700.00,142.15 700.00,139.00
             700.00,139.00 700.00,26.00 700.00,26.00
             699.99,22.34 700.12,19.54 698.89,16.00
             693.89,1.54 679.20,-0.20 666.00,1.43 Z
           M 315.00,215.11
           C 300.65,217.59 289.05,220.55 276.00,227.26
             241.58,244.94 215.06,283.71 215.00,323.00
             215.00,323.00 215.00,701.00 215.00,701.00
             215.02,714.99 219.60,731.49 225.76,744.00
             231.63,755.95 237.71,765.35 247.04,775.00
             266.66,795.27 297.68,808.96 326.00,809.00
             326.00,809.00 697.00,809.00 697.00,809.00
             756.31,808.91 808.91,757.68 809.00,698.00
             809.00,698.00 809.00,326.00 809.00,326.00
             808.94,289.69 788.72,254.30 759.00,234.03
             753.79,230.47 749.56,228.52 744.00,225.75
             731.44,219.49 715.08,215.02 701.00,215.11
             701.00,215.11 445.00,215.11 445.00,215.11
             445.00,215.11 360.00,215.11 360.00,215.11
             360.00,215.11 315.00,215.11 315.00,215.11 Z
           M 326.00,272.07
           C 326.00,272.07 369.00,272.07 369.00,272.07
             369.00,272.07 449.00,272.07 449.00,272.07
             449.00,272.07 691.00,272.07 691.00,272.07
             715.88,272.04 737.84,284.07 747.19,308.00
             749.59,314.15 750.92,319.36 751.00,326.00
             751.00,326.00 751.00,458.00 751.00,458.00
             751.00,458.00 751.00,695.00 751.00,695.00
             750.95,724.60 727.04,750.64 697.00,751.00
             697.00,751.00 565.00,751.00 565.00,751.00
             565.00,751.00 328.00,751.00 328.00,751.00
             294.28,750.95 272.05,723.41 272.00,691.00
             272.00,691.00 272.00,468.00 272.00,468.00
             272.00,468.00 272.00,331.00 272.00,331.00
             272.24,310.73 282.04,290.63 300.00,280.34
             309.59,274.84 315.40,273.84 326.00,272.07 Z
           M 22.00,323.14
           C 15.49,324.51 10.86,325.65 6.39,331.04
             -0.06,338.82 -0.74,357.06 3.57,366.00
             5.12,369.22 8.09,372.31 11.00,374.35
             16.05,377.90 20.14,377.99 26.00,378.00
             26.00,378.00 139.00,378.00 139.00,378.00
             142.15,378.00 144.93,378.10 148.00,377.21
             164.01,372.58 163.16,358.29 163.00,345.00
             162.93,339.85 162.35,336.33 159.20,332.04
             153.30,324.00 143.21,323.01 134.00,323.14
             134.00,323.14 61.00,323.14 61.00,323.14
             61.00,323.14 22.00,323.14 22.00,323.14 Z
           M 881.00,323.14
           C 874.38,324.53 869.96,325.64 865.34,331.04
             857.61,340.07 857.77,363.12 866.33,371.67
             871.78,377.13 877.73,377.99 885.00,378.00
             885.00,378.00 997.00,378.00 997.00,378.00
             1004.56,377.99 1010.12,377.51 1015.82,371.82
             1018.20,369.43 1020.22,366.24 1021.21,363.00
             1022.41,358.99 1022.38,343.04 1021.21,339.00
             1020.29,335.80 1018.55,332.76 1016.32,330.30
             1010.29,323.63 1001.45,323.01 993.00,323.14
             993.00,323.14 920.00,323.14 920.00,323.14
             920.00,323.14 881.00,323.14 881.00,323.14 Z
           M 500.00,491.00
           C 500.00,491.00 405.00,491.00 405.00,491.00
             405.00,491.00 405.00,538.00 405.00,538.00
             405.00,538.00 454.00,538.00 454.00,538.00
             454.00,546.36 456.50,561.57 447.00,565.26
             444.93,566.07 442.20,565.99 440.00,566.00
             440.00,566.00 359.00,566.00 359.00,566.00
             347.72,565.98 344.14,562.59 344.00,551.00
             344.00,551.00 344.00,474.00 344.00,474.00
             344.00,471.17 343.87,467.66 344.89,465.00
             346.11,461.81 348.79,458.97 352.00,457.74
             355.43,456.42 375.87,457.00 381.00,457.00
             381.00,457.00 500.00,457.00 500.00,457.00
             500.00,457.00 500.00,411.00 500.00,411.00
             500.00,411.00 353.00,411.00 353.00,411.00
             322.05,411.05 298.15,435.08 298.00,466.00
             298.00,466.00 298.00,556.00 298.00,556.00
             298.05,589.09 321.91,612.95 355.00,613.00
             355.00,613.00 445.00,613.00 445.00,613.00
             451.21,612.92 459.25,611.48 465.00,609.14
             470.05,607.07 474.67,604.67 479.00,601.32
             501.90,583.60 500.00,562.52 500.00,537.00
             500.00,537.00 500.00,491.00 500.00,491.00 Z
           M 523.00,411.00
           C 523.00,411.00 523.00,457.00 523.00,457.00
             523.00,457.00 726.00,457.00 726.00,457.00
             726.00,457.00 726.00,411.00 726.00,411.00
             726.00,411.00 523.00,411.00 523.00,411.00 Z
           M 18.00,431.53
           C 12.59,433.14 8.54,435.26 5.25,440.04
             -1.43,449.72 -0.57,471.45 8.18,479.67
             13.47,484.64 18.20,484.99 25.00,485.00
             25.00,485.00 140.00,485.00 140.00,485.00
             155.46,484.98 162.98,477.46 163.00,462.00
             163.01,452.90 164.42,445.42 157.79,438.04
             152.16,431.78 146.90,431.01 139.00,431.00
             139.00,431.00 60.00,431.00 60.00,431.00
             60.00,431.00 18.00,431.53 18.00,431.53 Z
           M 877.00,431.16
           C 865.04,434.39 860.14,443.24 860.00,455.00
             859.90,463.75 859.73,472.01 866.21,478.90
             871.44,484.46 876.87,484.99 884.00,485.00
             884.00,485.00 999.00,485.00 999.00,485.00
             1014.68,484.97 1021.98,476.25 1022.00,461.00
             1022.01,452.98 1022.99,445.75 1017.61,439.02
             1012.04,432.04 1006.34,431.01 998.00,431.16
             998.00,431.16 919.00,431.16 919.00,431.16
             919.00,431.16 877.00,431.16 877.00,431.16 Z
           M 601.00,478.00
           C 601.00,478.00 601.00,613.00 601.00,613.00
             601.00,613.00 647.00,613.00 647.00,613.00
             647.00,613.00 647.00,478.00 647.00,478.00
             647.00,478.00 601.00,478.00 601.00,478.00 Z
           M 19.00,538.52
           C 13.29,540.09 9.24,542.07 5.64,547.01
             -1.22,556.41 -0.79,577.27 7.21,585.91
             13.01,592.17 19.97,592.99 28.00,593.00
             28.00,593.00 137.00,593.00 137.00,593.00
             144.34,592.99 151.24,592.19 156.82,586.79
             159.20,584.48 161.24,581.18 162.21,578.00
             163.43,573.94 163.40,557.10 162.21,553.00
             161.36,550.06 159.88,547.34 157.79,545.10
             152.09,539.01 144.85,538.01 137.00,538.00
             137.00,538.00 60.00,538.00 60.00,538.00
             60.00,538.00 19.00,538.52 19.00,538.52 Z
           M 878.00,538.16
           C 865.11,541.54 860.06,550.40 860.00,563.00
             859.97,570.51 859.55,577.63 864.42,584.00
             870.41,591.85 877.78,592.99 887.00,593.00
             887.00,593.00 996.00,593.00 996.00,593.00
             1003.91,592.99 1010.95,592.01 1016.67,585.82
             1024.20,577.65 1024.29,553.32 1016.67,545.18
             1010.87,538.99 1003.99,538.01 996.00,538.16
             996.00,538.16 919.00,538.16 919.00,538.16
             919.00,538.16 878.00,538.16 878.00,538.16 Z
           M 17.00,646.53
           C 11.71,648.18 8.26,650.31 4.90,655.01
             -0.23,662.98 -0.66,681.94 4.90,690.00
             10.16,698.21 16.81,699.99 26.00,700.00
             26.00,700.00 139.00,700.00 139.00,700.00
             146.90,699.99 152.16,699.22 157.79,692.96
             161.77,688.53 162.92,684.80 163.00,679.00
             163.17,666.08 164.69,651.53 149.00,646.80
             146.02,645.90 143.07,646.00 140.00,646.00
             140.00,646.00 59.00,646.00 59.00,646.00
             59.00,646.00 17.00,646.53 17.00,646.53 Z
           M 875.00,646.64
           C 869.80,648.60 866.12,651.09 863.22,656.00
             857.97,664.91 858.57,684.90 865.53,692.82
             870.87,698.90 877.41,699.99 885.00,700.00
             885.00,700.00 998.00,700.00 998.00,700.00
             1006.61,699.99 1012.97,698.50 1018.35,690.99
             1021.33,686.83 1021.94,682.95 1022.00,678.00
             1022.15,665.58 1022.47,651.74 1008.00,646.85
             1005.12,645.88 1002.00,646.00 999.00,646.00
             999.00,646.00 917.00,646.00 917.00,646.00
             917.00,646.00 875.00,646.64 875.00,646.64 Z
           M 342.00,860.46
           C 327.44,863.74 323.17,873.01 323.00,887.00
             323.00,887.00 323.00,993.00 323.00,993.00
             323.02,1008.75 327.72,1021.78 346.00,1022.00
             359.03,1022.15 372.55,1022.65 377.06,1007.00
             378.06,1003.55 377.99,1000.53 378.00,997.00
             378.00,997.00 378.00,885.00 378.00,885.00
             377.99,881.31 378.12,878.58 376.89,875.00
             371.63,859.67 355.80,858.56 342.00,860.46 Z
           M 449.00,860.47
           C 435.91,863.59 431.06,870.98 431.00,884.00
             431.00,884.00 431.00,998.00 431.00,998.00
             431.02,1012.33 437.85,1021.81 453.00,1022.00
             465.94,1022.15 479.88,1022.52 484.36,1007.00
             485.11,1004.43 485.00,1001.65 485.00,999.00
             485.00,999.00 485.00,884.00 485.00,884.00
             484.99,880.36 485.12,877.53 483.89,874.00
             478.86,859.54 461.83,858.67 449.00,860.47 Z
           M 556.00,860.47
           C 543.80,863.38 538.15,871.82 538.00,884.00
             538.00,884.00 538.00,996.00 538.00,996.00
             538.02,1011.45 544.34,1021.80 561.00,1022.00
             574.83,1022.16 587.58,1022.38 592.07,1006.00
             593.06,1002.39 592.99,999.67 593.00,996.00
             593.00,996.00 593.00,886.00 593.00,886.00
             592.98,881.48 592.63,877.23 590.87,873.00
             585.14,859.22 568.62,858.70 556.00,860.47 Z
           M 664.00,860.46
           C 648.76,863.89 645.17,873.66 645.00,888.00
             645.00,888.00 645.00,992.00 645.00,992.00
             645.02,1007.91 649.18,1021.77 668.00,1022.00
             681.18,1022.16 694.49,1022.61 699.20,1007.00
             700.10,1004.02 700.00,1001.08 700.00,998.00
             700.00,998.00 700.00,885.00 700.00,885.00
             699.99,881.31 700.12,878.58 698.89,875.00
             693.63,859.67 677.80,858.56 664.00,860.46 Z" />
</svg>
